character-justice/static/images/sponsor/sponsorSmall.svg

<svg width="284" height="48" viewBox="0 0 284 48" fill="none" xmlns="http://www.w3.org/2000/svg">
<rect x="3.54114" y="4" width="280.459" height="44" rx="2" fill="#000928"/>
<rect x="0.5" y="0.5" width="279.459" height="43" rx="1.5" fill="#EBF02C" stroke="#F5EBFF"/>
<path d="M23.0291 26.465H29.4791V27.08H23.0291V26.465ZM23.0291 24.89H29.4791V25.505H23.0291V24.89ZM23.0291 23.33H29.4791V23.93H23.0291V23.33ZM22.2941 18.275V18.92H20.6591C20.8091 18.71 20.9591 18.5 21.0791 18.275H22.2941ZM28.8641 18.29V18.92H27.2141C27.3641 18.71 27.5141 18.5 27.6341 18.29H28.8641ZM31.2941 28.1V22.31H26.7941C28.2641 21.83 28.8491 21.11 29.0741 20.03H29.7191V20.795C29.7191 21.905 29.9441 22.25 31.0691 22.25H31.9241C32.6891 22.25 33.0191 21.95 33.1541 20.84C32.7791 20.765 32.2541 20.585 32.0141 20.39C31.9691 21.02 31.9241 21.11 31.7291 21.11H31.2941C31.1291 21.11 31.0991 21.095 31.0991 20.78V20.03H32.8691V18.92H30.3041V18.29H32.4191V17.21H30.3041V16.28H28.8641V17.21H28.1441C28.2191 17.015 28.2941 16.82 28.3541 16.625L27.1391 16.43C26.9441 17.03 26.6141 17.735 26.1041 18.305C26.4341 18.425 26.8691 18.68 27.1541 18.92H26.2991V20.03H27.6641C27.4541 20.585 27.0041 20.945 25.9691 21.2C25.9841 20.945 25.9991 20.675 26.0441 20.45L24.5591 20.75V20.03H25.9241V18.92H23.7191V18.275H25.6391V17.195H23.7191V16.28H22.2941V17.195H21.5441C21.6191 17.015 21.6791 16.82 21.7391 16.625L20.5391 16.43C20.3591 17.03 20.0291 17.735 19.5491 18.305C19.8941 18.425 20.3441 18.68 20.6291 18.92H19.4591V20.03H21.0041C20.8091 20.735 20.3441 21.275 19.2041 21.62C19.4891 21.86 19.8791 22.415 20.0291 22.745C21.5891 22.145 22.1891 21.245 22.4291 20.03H23.1491V20.27C23.1491 20.87 22.8191 21.155 22.5641 21.275C22.7141 21.455 22.9241 21.86 23.0141 22.16L23.0291 22.31L23.0591 22.295C23.2991 22.16 23.7791 22.04 25.9691 21.53C25.9691 21.455 25.9691 21.38 25.9691 21.275C26.2391 21.545 26.5541 22.01 26.6891 22.31H21.2891V28.1H23.2991C22.2491 28.52 20.7041 28.85 19.3091 29.075C19.6991 29.36 20.2991 30.005 20.5991 30.335C22.1591 29.975 24.1241 29.33 25.3541 28.61L24.1841 28.1H28.1141L27.0041 28.775C28.5791 29.24 30.1541 29.885 31.0391 30.335L32.9741 29.465C32.0291 29.075 30.4991 28.55 29.0591 28.1H31.2941ZM39.2091 24.695H41.1891V26.105C40.4991 26.24 39.8391 26.39 39.2091 26.51V24.695ZM41.1891 18.515V20.03H39.2091V18.515H41.1891ZM41.1891 23.135H39.2091V21.59H41.1891V23.135ZM50.2041 19.52H46.9491C46.9791 18.5 46.9791 17.42 46.9791 16.295H45.2241C45.2241 17.435 45.2241 18.5 45.2091 19.52H43.2441V21.2H45.1491C45.0141 23.525 44.6541 25.46 43.6491 27.02L43.4841 25.61L42.8391 25.745V16.91H37.6341V26.81C37.2591 26.885 36.8991 26.945 36.5991 27.005L36.8841 28.835C38.7141 28.4 41.1741 27.83 43.4691 27.26C43.0191 27.905 42.4341 28.46 41.6991 28.955C42.1191 29.27 42.6741 29.87 42.9441 30.305C45.8391 28.31 46.6491 25.16 46.8741 21.2H48.4641C48.3741 26.015 48.2391 27.875 47.8941 28.28C47.7591 28.49 47.6091 28.535 47.3691 28.535C47.0391 28.535 46.3641 28.52 45.6291 28.475C45.9441 28.94 46.1241 29.69 46.1541 30.17C46.9341 30.2 47.7141 30.215 48.1941 30.125C48.7341 30.035 49.0941 29.87 49.4391 29.36C49.9341 28.67 50.0691 26.465 50.2041 20.315V19.52ZM63.1626 19.655H64.6026C66.0276 19.655 66.8076 20.06 66.8076 21.26C66.8076 22.445 66.0276 23.045 64.6026 23.045H63.1626V19.655ZM69.4626 29L66.8676 24.455C68.1426 23.96 68.9826 22.925 68.9826 21.26C68.9826 18.71 67.1376 17.9 64.8126 17.9H60.9426V29H63.1626V24.8H64.7076L66.9876 29H69.4626ZM73.6672 29H80.6422V27.14H75.8872V24.17H79.7872V22.31H75.8872V19.745H80.4772V17.9H73.6672V29ZM87.4807 24.425L87.8107 23.21C88.1407 22.055 88.4707 20.795 88.7557 19.58H88.8157C89.1457 20.78 89.4457 22.055 89.7907 23.21L90.1207 24.425H87.4807ZM91.3807 29H93.7057L90.1357 17.9H87.5257L83.9707 29H86.2207L87.0007 26.15H90.6007L91.3807 29ZM97.5051 29H100.67C103.94 29 106.04 27.14 106.04 23.405C106.04 19.655 103.94 17.9 100.55 17.9H97.5051V29ZM99.7251 27.215V19.67H100.415C102.485 19.67 103.775 20.69 103.775 23.405C103.775 26.105 102.485 27.215 100.415 27.215H99.7251ZM110.533 29H112.723V23.99C113.203 22.775 113.998 22.34 114.658 22.34C115.003 22.34 115.243 22.385 115.528 22.475L115.918 20.57C115.663 20.465 115.393 20.39 114.928 20.39C114.058 20.39 113.158 20.99 112.543 22.085H112.483L112.333 20.6H110.533V29ZM124.895 22.19V24.125H138.695V22.19H124.895ZM153.72 18.44V21.035H151.365V18.44H153.72ZM154.17 27.53C155.67 27.53 156.15 26.81 156.345 24.68C155.865 24.56 155.16 24.275 154.785 23.99C154.695 25.58 154.59 25.925 154.02 25.925H152.085C151.455 25.925 151.365 25.805 151.365 25.115V22.58H155.43V16.88H149.64V25.115C149.64 27.02 150.18 27.53 151.86 27.53H154.17ZM146.985 25.46H148.89V23.915H146.985V22.295H149.01V20.735H146.655V19.34H148.65V17.795H146.655V16.34H144.975V17.795H142.86V19.34H144.975V20.735H142.44V22.295H145.35V26.81C145.02 26.405 144.735 25.88 144.525 25.22C144.555 24.605 144.585 23.945 144.6 23.285L142.965 23.165C142.935 25.73 142.785 28.235 142.05 29.75C142.425 29.915 143.22 30.305 143.55 30.515C143.865 29.78 144.09 28.895 144.24 27.875C145.425 29.555 147.21 29.93 149.985 29.93H155.775C155.88 29.39 156.18 28.58 156.45 28.16C155.1 28.235 151.125 28.235 149.985 28.22C148.785 28.22 147.78 28.16 146.985 27.89V25.46ZM166.975 26.36C166.54 27.29 165.685 28.295 164.875 28.835C165.25 29.12 165.775 29.675 166.03 30.05C166.9 29.33 167.755 28.01 168.235 26.81L166.975 26.36ZM167.95 21.425H170.62V22.235H167.95V21.425ZM170.62 19.34V20.12H167.95V19.34H170.62ZM163.18 20.915C163.15 22.145 163.015 23.585 162.505 25.01C162.19 24.71 161.875 24.395 161.575 24.125C161.785 23.165 161.98 22.1 162.175 20.99L163.18 20.915ZM173.53 26.075V24.575H170.275V23.66H172.315V19.34H173.47V17.84H172.315V16.295H170.62V17.84H167.95V16.295H166.33V17.84H165.28V19.235L164.665 19.265V18.41H163.195V19.355L162.415 19.4C162.55 18.395 162.67 17.375 162.745 16.46L161.23 16.4C161.17 17.345 161.065 18.41 160.915 19.46L159.73 19.52L159.895 21.125L160.675 21.08C160.465 22.4 160.21 23.645 159.955 24.605C160.525 25.175 161.2 25.85 161.845 26.51C161.32 27.44 160.6 28.295 159.64 29.09C160 29.315 160.525 29.855 160.765 30.185C161.68 29.42 162.385 28.58 162.925 27.71C163.42 28.28 163.87 28.82 164.17 29.27L165.22 27.905C164.845 27.425 164.29 26.825 163.675 26.195C164.44 24.335 164.62 22.4 164.665 20.81L165.28 20.765V19.34H166.33V23.66H168.535V24.575H165.115V26.075H168.535V30.305H170.275V26.075H173.53ZM170.605 26.9C171.265 27.875 172.075 29.15 172.435 29.93L173.8 29.315C173.41 28.535 172.54 27.29 171.895 26.375L170.605 26.9ZM189.515 19.235H188.72V18.545H189.515V19.235ZM189.515 21.02H188.72V20.315H189.515V21.02ZM185.075 20.315H185.84V21.02H185.075V20.315ZM185.075 18.545H185.84V19.235H185.075V18.545ZM187.64 20.315V21.02H186.92V20.315H187.64ZM186.92 19.235V18.545H187.64V19.235H186.92ZM190.895 17.375H188.96V16.31H187.565V17.375H186.905V16.31H185.525V17.375H183.755V22.19H190.895V17.375ZM191.18 22.7H183.53V23.975H191.18V22.7ZM179.585 25.235C180.02 25.565 180.485 25.97 180.74 26.225L181.34 25.565V26.225C180.665 26.555 180.05 26.855 179.54 27.065C179.57 26.57 179.585 26.12 179.585 25.685V25.235ZM179.36 18.02H181.4V18.635H179.945V21.035H179.36V18.02ZM180.845 21.035V19.64H181.4V21.035H180.845ZM182.135 22.835H178.7V22.235H182.135V22.835ZM179.585 23.99H181.34V25.235C181.01 24.95 180.53 24.62 180.095 24.335L179.585 24.845V23.99ZM183.485 23.345V21.035H182.855V16.76H177.98V21.035H177.395V23.36H178.145V25.655C178.145 26.84 178.085 28.37 177.35 29.495C177.68 29.645 178.34 30.095 178.595 30.35C179.12 29.57 179.375 28.49 179.495 27.47L179.885 28.31C180.365 28.025 180.845 27.71 181.34 27.38V28.745C181.34 28.88 181.295 28.94 181.145 28.94C181.01 28.94 180.56 28.94 180.14 28.925C180.32 29.285 180.5 29.855 180.545 30.23C181.34 30.23 181.895 30.215 182.285 29.99C182.705 29.765 182.81 29.405 182.81 28.76V23.345H183.485ZM188.375 27.395C188.255 27.815 188.06 28.325 187.88 28.775H186.665C186.53 28.355 186.335 27.845 186.155 27.395H188.375ZM185.66 25.55H188.915V26.33H185.66V25.55ZM189.35 28.775C189.56 28.445 189.77 28.085 190.01 27.71L188.855 27.395H190.565V24.47H184.1V27.395H185.69L184.745 27.68C184.88 28.01 185.03 28.4 185.15 28.775H183.38V30.065H191.3V28.775H189.35ZM197.01 18.89H206.505V20.12H208.17V17.51H202.695C202.53 17.075 202.26 16.58 202.005 16.175L200.445 16.61C200.595 16.88 200.76 17.195 200.88 17.51H195.405V20.12H197.01V18.89ZM198.66 26.885H204.9V27.365H198.66V26.885ZM198.66 25.58H204.9V26.045H198.66V25.58ZM198.66 24.29H204.9V24.725H198.66V24.29ZM206.715 28.25V23.39H196.935V28.25H199.08C198 28.655 196.455 29 195.135 29.18C195.45 29.51 195.87 30.05 196.08 30.395C197.82 30.14 199.92 29.555 201.18 28.91L200.28 28.25H203.025L202.41 28.925C204.135 29.375 205.89 29.975 206.97 30.38L208.185 29.285C207.3 29 205.98 28.61 204.66 28.25H206.715ZM202.335 22.07L202.395 21.59H204.315L204.27 22.07H202.335ZM198.96 21.59H200.94L200.88 22.07H198.9L198.96 21.59ZM201.075 20.27L201.03 20.705H199.065L199.125 20.27H201.075ZM204.39 20.705H202.5L202.53 20.27H204.42L204.39 20.705ZM206.055 20.51L206.16 19.37H197.67L197.52 20.51H194.985V21.785H197.34L197.19 22.955H205.815L205.935 21.785H208.65V20.51H206.055ZM213.145 29.285C213.4 28.445 213.595 27.02 213.685 26.03L212.8 25.715C212.695 26.705 212.47 28.085 212.185 28.955L213.145 29.285ZM213.85 26.03C213.91 26.9 213.955 28.04 213.925 28.79L214.705 28.7C214.705 27.95 214.66 26.825 214.585 25.97L213.85 26.03ZM214.735 25.925C214.915 26.69 215.095 27.71 215.14 28.37L215.89 28.22C215.83 27.575 215.635 26.585 215.455 25.805L214.735 25.925ZM214.33 22.82H215.26V23.765H214.33V22.82ZM215.26 18.32V19.31H214.33V18.32H215.26ZM215.26 21.515H214.33V20.63H215.26V21.515ZM220.705 19.595C221.23 19.175 221.725 18.725 222.145 18.245C222.655 18.71 223.225 19.16 223.81 19.595H220.705ZM219.655 25.685C219.385 27.11 218.815 28.415 217.93 29.255C218.11 28.565 218.185 27.125 218.26 24.335C218.275 24.155 218.275 23.765 218.275 23.765H216.61V22.82H217.945V21.515H216.61V20.63H217.9V19.805C218.23 20.075 218.68 20.555 218.89 20.84C219.235 20.63 219.58 20.42 219.925 20.195V20.945H224.335V19.955C224.8 20.27 225.265 20.54 225.73 20.78C225.835 20.33 226.135 19.55 226.39 19.145C225.235 18.71 223.93 17.915 223.03 17.12C223.135 16.97 223.24 16.82 223.33 16.655L221.74 16.1C220.945 17.405 219.49 18.77 217.9 19.655V19.31H216.61V18.32H218.14V16.865H212.95V25.22H216.865C216.835 25.94 216.82 26.54 216.79 27.02C216.655 26.555 216.46 26 216.265 25.565L215.635 25.775C215.875 26.375 216.13 27.185 216.235 27.71L216.76 27.515C216.7 28.295 216.64 28.655 216.55 28.805C216.445 28.955 216.34 28.97 216.175 28.97C216.025 28.97 215.71 28.97 215.335 28.925C215.515 29.285 215.665 29.84 215.68 30.245C216.16 30.26 216.625 30.245 216.925 30.185C217.27 30.14 217.525 30.02 217.75 29.69C217.81 29.615 217.855 29.51 217.9 29.36C218.245 29.615 218.8 30.065 219.025 30.32C219.52 29.81 219.955 29.165 220.315 28.415C220.735 28.73 221.14 29.09 221.38 29.345L222.25 28.19C221.95 27.86 221.38 27.425 220.84 27.095C220.96 26.72 221.065 26.33 221.155 25.94L219.655 25.685ZM223.51 22.85H224.455V24.26H223.51V22.85ZM222.355 25.385H225.685V21.74H222.355V25.385ZM219.82 22.85H220.645V24.26H219.82V22.85ZM218.665 25.385H221.875V21.74H218.665V25.385ZM223.315 25.61C223.09 27.11 222.58 28.475 221.71 29.33C222.085 29.555 222.745 30.05 223 30.32C223.33 29.96 223.63 29.51 223.885 29.03C224.395 29.42 224.905 29.84 225.19 30.155L226.225 28.94C225.835 28.565 225.115 28.04 224.485 27.62C224.665 27.065 224.8 26.48 224.905 25.88L223.315 25.61ZM238.73 20.615H241.115C240.89 22.16 240.515 23.495 239.975 24.635C239.405 23.465 238.985 22.13 238.7 20.69L238.73 20.615ZM243.65 20.615V18.965H239.27C239.495 18.2 239.675 17.405 239.825 16.61L238.07 16.295C237.665 18.59 236.93 20.855 235.865 22.37V17.225H230.3V18.98H234.095V21.5H230.45V27.065C230.45 27.635 230.195 27.89 229.895 28.025C230.18 28.46 230.48 29.375 230.57 29.87C231.02 29.525 231.71 29.18 236.045 27.545C235.955 27.155 235.85 26.405 235.85 25.865L232.25 27.11V23.255H235.865V23.045C236.225 23.405 236.66 23.885 236.855 24.125C237.125 23.795 237.38 23.42 237.62 23.015C237.965 24.23 238.385 25.355 238.925 26.345C238.1 27.35 237.05 28.145 235.685 28.715C236.03 29.105 236.555 29.945 236.72 30.365C238.055 29.735 239.12 28.925 239.975 27.935C240.74 28.865 241.64 29.645 242.75 30.215C243.005 29.75 243.56 29.045 243.965 28.685C242.795 28.175 241.85 27.38 241.085 26.42C242.015 24.845 242.6 22.925 242.975 20.615H243.65ZM250.92 24.305V23.165H253.32V24.305H250.92ZM257.64 23.165V24.305H255.18V23.165H257.64ZM252.345 18.905H256.14V19.73H252.345V18.905ZM261.105 26.555H255.18V25.67H259.56V21.785H255.18V21.05H257.985V18.905H260.85V17.39H257.985V16.295H256.14V17.39H252.345V16.295H250.59V17.39H247.74V18.905H250.59V21.05H253.32V21.785H249.12V25.67H253.32V26.555H247.5V28.175H253.32V30.32H255.18V28.175H261.105V26.555Z" fill="#000928"/>
</svg>

<svg fill="none" height="48" viewBox="0 0 284 48" width="284" xmlns="http://www.w3.org/2000/svg"><rect fill="#000928" height="44" rx="2" width="280.459" x="3.54114" y="4"/><rect fill="#ebf02c" height="43" rx="1.5" stroke="#f5ebff" width="279.459" x=".5" y=".5"/><path d="m23.0291 26.465h6.45v.615h-6.45zm0-1.575h6.45v.615h-6.45zm0-1.56h6.45v.6h-6.45zm-.735-5.055v.645h-1.635c.15-.21.3-.42.42-.645zm6.57.015v.63h-1.65c.15-.21.3-.42.42-.63zm2.43 9.81v-5.79h-4.5c1.47-.48 2.055-1.2 2.28-2.28h.645v.765c0 1.11.225 1.455 1.35 1.455h.855c.765 0 1.095-.3 1.23-1.41-.375-.075-.9-.255-1.14-.45-.045.63-.09.72-.285.72h-.435c-.165 0-.195-.015-.195-.33v-.75h1.77v-1.11h-2.565v-.63h2.115v-1.08h-2.115v-.93h-1.44v.93h-.72c.075-.195.15-.39.21-.585l-1.215-.195c-.195.6-.525 1.305-1.035 1.875.33.12.765.375 1.05.615h-.855v1.11h1.365c-.21.555-.66.915-1.695 1.17.015-.255.03-.525.075-.75l-1.485.3v-.72h1.365v-1.11h-2.205v-.645h1.92v-1.08h-1.92v-.915h-1.425v.915h-.75c.075-.18.135-.375.195-.57l-1.2-.195c-.18.6-.51 1.305-.99 1.875.345.12.795.375 1.08.615h-1.17v1.11h1.545c-.195.705-.66 1.245-1.8 1.59.285.24.675.795.825 1.125 1.56-.6 2.16-1.5 2.4-2.715h.72v.24c0 .6-.33.885-.585 1.005.15.18.36.585.45.885l.015.15.03-.015c.24-.135.72-.255 2.91-.765 0-.075 0-.15 0-.255.27.27.585.735.72 1.035h-5.4v5.79h2.01c-1.05.42-2.595.75-3.99.975.39.285.99.93 1.29 1.26 1.56-.36 3.525-1.005 4.755-1.725l-1.17-.51h3.93l-1.11.675c1.575.465 3.15 1.11 4.035 1.56l1.935-.87c-.945-.39-2.475-.915-3.915-1.365zm7.915-3.405h1.98v1.41c-.69.135-1.35.285-1.98.405zm1.98-6.18v1.515h-1.98v-1.515zm0 4.62h-1.98v-1.545h1.98zm9.015-3.615h-3.255c.03-1.02.03-2.1.03-3.225h-1.755c0 1.14 0 2.205-.015 3.225h-1.965v1.68h1.905c-.135 2.325-.495 4.26-1.5 5.82l-.165-1.41-.645.135v-8.835h-5.205v9.9c-.375.075-.735.135-1.035.195l.285 1.83c1.83-.435 4.29-1.005 6.585-1.575-.45.645-1.035 1.2-1.77 1.695.42.315.975.915 1.245 1.35 2.895-1.995 3.705-5.145 3.93-9.105h1.59c-.09 4.815-.225 6.675-.57 7.08-.135.21-.285.255-.525.255-.33 0-1.005-.015-1.74-.06.315.465.495 1.215.525 1.695.78.03 1.56.045 2.04-.045.54-.09.9-.255 1.245-.765.495-.69.63-2.895.765-9.045zm12.9585.135h1.44c1.425 0 2.205.405 2.205 1.605 0 1.185-.78 1.785-2.205 1.785h-1.44zm6.3 9.345-2.595-4.545c1.275-.495 2.115-1.53 2.115-3.195 0-2.55-1.845-3.36-4.17-3.36h-3.87v11.1h2.22v-4.2h1.545l2.28 4.2zm4.2046 0h6.975v-1.86h-4.755v-2.97h3.9v-1.86h-3.9v-2.565h4.59v-1.845h-6.81zm13.8135-4.575.33-1.215c.33-1.155.66-2.415.945-3.63h.06c.33 1.2.63 2.475.975 3.63l.33 1.215zm3.9 4.575h2.325l-3.57-11.1h-2.61l-3.555 11.1h2.25l.78-2.85h3.6zm6.1244 0h3.1649c3.27 0 5.37-1.86 5.37-5.595 0-3.75-2.1-5.505-5.49-5.505h-3.0449zm2.22-1.785v-7.545h.6899c2.07 0 3.36 1.02 3.36 3.735 0 2.7-1.29 3.81-3.36 3.81zm10.8079 1.785h2.19v-5.01c.48-1.215 1.275-1.65 1.935-1.65.345 0 .585.045.87.135l.39-1.905c-.255-.105-.525-.18-.99-.18-.87 0-1.77.6-2.385 1.695h-.06l-.15-1.485h-1.8zm14.362-6.81v1.935h13.8v-1.935zm28.825-3.75v2.595h-2.355v-2.595zm.45 9.09c1.5 0 1.98-.72 2.175-2.85-.48-.12-1.185-.405-1.56-.69-.09 1.59-.195 1.935-.765 1.935h-1.935c-.63 0-.72-.12-.72-.81v-2.535h4.065v-5.7h-5.79v8.235c0 1.905.54 2.415 2.22 2.415zm-7.185-2.07h1.905v-1.545h-1.905v-1.62h2.025v-1.56h-2.355v-1.395h1.995v-1.545h-1.995v-1.455h-1.68v1.455h-2.115v1.545h2.115v1.395h-2.535v1.56h2.91v4.515c-.33-.405-.615-.93-.825-1.59.03-.615.06-1.275.075-1.935l-1.635-.12c-.03 2.565-.18 5.07-.915 6.585.375.165 1.17.555 1.5.765.315-.735.54-1.62.69-2.64 1.185 1.68 2.97 2.055 5.745 2.055h5.79c.105-.54.405-1.35.675-1.77-1.35.075-5.325.075-6.465.06-1.2 0-2.205-.06-3-.33zm19.99.9c-.435.93-1.29 1.935-2.1 2.475.375.285.9.84 1.155 1.215.87-.72 1.725-2.04 2.205-3.24zm.975-4.935h2.67v.81h-2.67zm2.67-2.085v.78h-2.67v-.78zm-7.44 1.575c-.03 1.23-.165 2.67-.675 4.095-.315-.3-.63-.615-.93-.885.21-.96.405-2.025.6-3.135zm10.35 5.16v-1.5h-3.255v-.915h2.04v-4.32h1.155v-1.5h-1.155v-1.545h-1.695v1.545h-2.67v-1.545h-1.62v1.545h-1.05v1.395l-.615.03v-.855h-1.47v.945l-.78.045c.135-1.005.255-2.025.33-2.94l-1.515-.06c-.06.945-.165 2.01-.315 3.06l-1.185.06.165 1.605.78-.045c-.21 1.32-.465 2.565-.72 3.525.57.57 1.245 1.245 1.89 1.905-.525.93-1.245 1.785-2.205 2.58.36.225.885.765 1.125 1.095.915-.765 1.62-1.605 2.16-2.475.495.57.945 1.11 1.245 1.56l1.05-1.365c-.375-.48-.93-1.08-1.545-1.71.765-1.86.945-3.795.99-5.385l.615-.045v-1.425h1.05v4.32h2.205v.915h-3.42v1.5h3.42v4.23h1.74v-4.23zm-2.925.825c.66.975 1.47 2.25 1.83 3.03l1.365-.615c-.39-.78-1.26-2.025-1.905-2.94zm18.91-7.665h-.795v-.69h.795zm0 1.785h-.795v-.705h.795zm-4.44-.705h.765v.705h-.765zm0-1.77h.765v.69h-.765zm2.565 1.77v.705h-.72v-.705zm-.72-1.08v-.69h.72v.69zm3.975-1.86h-1.935v-1.065h-1.395v1.065h-.66v-1.065h-1.38v1.065h-1.77v4.815h7.14zm.285 5.325h-7.65v1.275h7.65zm-11.595 2.535c.435.33.9.735 1.155.99l.6-.66v.66c-.675.33-1.29.63-1.8.84.03-.495.045-.945.045-1.38zm-.225-7.215h2.04v.615h-1.455v2.4h-.585zm1.485 3.015v-1.395h.555v1.395zm1.29 1.8h-3.435v-.6h3.435zm-2.55 1.155h1.755v1.245c-.33-.285-.81-.615-1.245-.9l-.51.51zm3.9-.645v-2.31h-.63v-4.275h-4.875v4.275h-.585v2.325h.75v2.295c0 1.185-.06 2.715-.795 3.84.33.15.99.6 1.245.855.525-.78.78-1.86.9-2.88l.39.84c.48-.285.96-.6 1.455-.93v1.365c0 .135-.045.195-.195.195-.135 0-.585 0-1.005-.015.18.36.36.93.405 1.305.795 0 1.35-.015 1.74-.24.42-.225.525-.585.525-1.23v-5.415zm4.89 4.05c-.12.42-.315.93-.495 1.38h-1.215c-.135-.42-.33-.93-.51-1.38zm-2.715-1.845h3.255v.78h-3.255zm3.69 3.225c.21-.33.42-.69.66-1.065l-1.155-.315h1.71v-2.925h-6.465v2.925h1.59l-.945.285c.135.33.285.72.405 1.095h-1.77v1.29h7.92v-1.29zm7.66-9.885h9.495v1.23h1.665v-2.61h-5.475c-.165-.435-.435-.93-.69-1.335l-1.56.435c.15.27.315.585.435.9h-5.475v2.61h1.605zm1.65 7.995h6.24v.48h-6.24zm0-1.305h6.24v.465h-6.24zm0-1.29h6.24v.435h-6.24zm8.055 3.96v-4.86h-9.78v4.86h2.145c-1.08.405-2.625.75-3.945.93.315.33.735.87.945 1.215 1.74-.255 3.84-.84 5.1-1.485l-.9-.66h2.745l-.615.675c1.725.45 3.48 1.05 4.56 1.455l1.215-1.095c-.885-.285-2.205-.675-3.525-1.035zm-4.38-6.18.06-.48h1.92l-.045.48zm-3.375-.48h1.98l-.06.48h-1.98zm2.115-1.32-.045.435h-1.965l.06-.435zm3.315.435h-1.89l.03-.435h1.89zm1.665-.195.105-1.14h-8.49l-.15 1.14h-2.535v1.275h2.355l-.15 1.17h8.625l.12-1.17h2.715v-1.275zm7.09 8.775c.255-.84.45-2.265.54-3.255l-.885-.315c-.105.99-.33 2.37-.615 3.24zm.705-3.255c.06.87.105 2.01.075 2.76l.78-.09c0-.75-.045-1.875-.12-2.73zm.885-.105c.18.765.36 1.785.405 2.445l.75-.15c-.06-.645-.255-1.635-.435-2.415zm-.405-3.105h.93v.945h-.93zm.93-4.5v.99h-.93v-.99zm0 3.195h-.93v-.885h.93zm5.445-1.92c.525-.42 1.02-.87 1.44-1.35.51.465 1.08.915 1.665 1.35zm-1.05 6.09c-.27 1.425-.84 2.73-1.725 3.57.18-.69.255-2.13.33-4.92.015-.18.015-.57.015-.57h-1.665v-.945h1.335v-1.305h-1.335v-.885h1.29v-.825c.33.27.78.75.99 1.035.345-.21.69-.42 1.035-.645v.75h4.41v-.99c.465.315.93.585 1.395.825.105-.45.405-1.23.66-1.635-1.155-.435-2.46-1.23-3.36-2.025.105-.15.21-.3.3-.465l-1.59-.555c-.795 1.305-2.25 2.67-3.84 3.555v-.345h-1.29v-.99h1.53v-1.455h-5.19v8.355h3.915c-.03.72-.045 1.32-.075 1.8-.135-.465-.33-1.02-.525-1.455l-.63.21c.24.6.495 1.41.6 1.935l.525-.195c-.06.78-.12 1.14-.21 1.29-.105.15-.21.165-.375.165-.15 0-.465 0-.84-.045.18.36.33.915.345 1.32.48.015.945 0 1.245-.06.345-.045.6-.165.825-.495.06-.075.105-.18.15-.33.345.255.9.705 1.125.96.495-.51.93-1.155 1.29-1.905.42.315.825.675 1.065.93l.87-1.155c-.3-.33-.87-.765-1.41-1.095.12-.375.225-.765.315-1.155zm3.855-2.835h.945v1.41h-.945zm-1.155 2.535h3.33v-3.645h-3.33zm-2.535-2.535h.825v1.41h-.825zm-1.155 2.535h3.21v-3.645h-3.21zm4.65.225c-.225 1.5-.735 2.865-1.605 3.72.375.225 1.035.72 1.29.99.33-.36.63-.81.885-1.29.51.39 1.02.81 1.305 1.125l1.035-1.215c-.39-.375-1.11-.9-1.74-1.32.18-.555.315-1.14.42-1.74zm15.415-4.995h2.385c-.225 1.545-.6 2.88-1.14 4.02-.57-1.17-.99-2.505-1.275-3.945zm4.92 0v-1.65h-4.38c.225-.765.405-1.56.555-2.355l-1.755-.315c-.405 2.295-1.14 4.56-2.205 6.075v-5.145h-5.565v1.755h3.795v2.52h-3.645v5.565c0 .57-.255.825-.555.96.285.435.585 1.35.675 1.845.45-.345 1.14-.69 5.475-2.325-.09-.39-.195-1.14-.195-1.68l-3.6 1.245v-3.855h3.615v-.21c.36.36.795.84.99 1.08.27-.33.525-.705.765-1.11.345 1.215.765 2.34 1.305 3.33-.825 1.005-1.875 1.8-3.24 2.37.345.39.87 1.23 1.035 1.65 1.335-.63 2.4-1.44 3.255-2.43.765.93 1.665 1.71 2.775 2.28.255-.465.81-1.17 1.215-1.53-1.17-.51-2.115-1.305-2.88-2.265.93-1.575 1.515-3.495 1.89-5.805zm7.27 3.69v-1.14h2.4v1.14zm6.72-1.14v1.14h-2.46v-1.14zm-5.295-4.26h3.795v.825h-3.795zm8.76 7.65h-5.925v-.885h4.38v-3.885h-4.38v-.735h2.805v-2.145h2.865v-1.515h-2.865v-1.095h-1.845v1.095h-3.795v-1.095h-1.755v1.095h-2.85v1.515h2.85v2.145h2.73v.735h-4.2v3.885h4.2v.885h-5.82v1.62h5.82v2.145h1.86v-2.145h5.925z" fill="#000928"/></svg>
